X: 19
T: Rosy Joan
R: jig
M: 6/8
L: 1/8
Z: 2010 John Chambers <jc:trillian.mit.edu>
B: John Johnson ed. "Twenty Four Country Dances", p.82 London 1766
K: G
|: G2D G,GA | BdB AFD | G2D G,GA | BgB [A3D3] | G2D G,GA | BdB g2d |
cAd BGe | DGF G3 :||: BGB ADd | BGB ADd | BGd AFd | Ed^c [d3D3] :||: G2D G,GA |
BdB AFD | G2D G,GA | BgB [A3D3] | G2D G,GA | BdB g2d | cAd BGe | DGF G3 :|


%%sep 5 1 500

